X: 444
T: Bu Gülzârın Yine Bir Nev-bahârı
C: Santûrî Ethem Efendi
O: Turkey
F: http://compmusic.upf.edu/node/140
N: sultaniyegah--sarki--curcuna--bu_gulzarin--santuri_ethem_efendi
N: makam= sultaniyegah
N: form= sarki
N: usul= curcuna = 10/8
M: 10/8
L: 1/16
K: C _B ^c  
Q: 1/4=222
%%MIDI tuningsystem comma53
z4 e2f4f2 e2f6  | z4 a2b4a2 ^g2a6  | \
w:   |   | 
z4 e2f4d2 c2d6  | z4 d2e4c2 B2A6  | 
w:   |   | 
z4 e2f4f2 e2e4d2  | e2g2 f2e2 d2e2 c2d6  | \
w:   |   | 
d4 =c2B2 A2A2 G2F2 E2D2  | 
w:   | 
E2F2 G2F2 E2D2 C2D6  | z4 e2f4f2 e2f6  | \
w:   |   | 
z4 a2b4a2 ^g2a6  | z4 e2f4d2 c2d6  | 
w:   |   | 
z4 d2e4c2 B2A6  | z4 e2f4f2 e2e4d2  | \
w:   |   | 
e2g2 f2e2 d2e2 c2d6  | 
w:   | 
d4 =c2B2 A2A2 G2F2 E2D2  | E2F2 G2F2 E2D2 C2D6  | \
w:   |   | 
z4 A2d4d2 c2d6  | 
w:  Bu  gül zâ *  rın   | 
d4 e2f4g4a6  | e4 e6f2 e2d2 c2B2  | A4 A2d4d2 c2d6  | \
w:  *  yi ne  bir  nev  |  ba hâ rı    |  *  Bu  gül zâ *  rın   | 
d4 e2f4g4a6  | 
w:  *  yi ne  bir  nev  | 
e4 f2e2 d2d2 c2d6  | z4 f2e2 d2e2 c2d2 e2g2  | \
w:  ba hâ *  *  rı    |  SAZ  | 
f4 e2f4f2 e2f4e2  | 
w:  *  Re hîn_ i  *  in  | 
e2f2 g4 f2e4e4d2  | =c4 c6d2 c2B2 A2G2  | \
w:  ti *  zâr  *  et ti   |  he zâ rı    | 
F4 G2A4A4A4G2  | G2A2 B2A2 G2F2 E2F2 E2D2  | 
w:  *  Re hîn_ i  in  |  ti *  zâr  *  *  et *  ti   | 
E4 F2E2 D2D2 C2D6  | z4 b2a2 g2f2 g2a6  | \
w:  he zâ *  *  rı    |  SAZ  | 
z4 g2a4a4a6  | a2b2 =c'2c'2 b2a4a4g2  | 
w:  Dem_ i  teş rîf_  |  i  *  yâ *  *  ri  gül  | 
g4 g6=c'2 _1/4b2_7/8a2 g2f2  | f4 g2a4a4a4g2  | \
w:  i zâ rı    |  *  Dem_ i  teş rîf_  | 
g2a2 b2a2 g2f2 e2f2 e2d2  | 
w:  i  *  yâ *  *  ri  *  gül  | 
e4 f2e2 d2d2 c2d6  | z4 f2e2 d2e2 c2d2 e2g2  | \
w:  i zâ *  *  rı    |  SAZ  | 
f4 e2f4f2 e2f6  | 
w:  *  Bu gün  de  *  neş  | 
e2f2 g4 f2e4e4d2  | =c4 c6d2 c2B2 A2G2  | \
w:  ve *  dâr  *  et tim_  |  e sâ rı    | 
F4 G2A4A4A4G2  | G2A2 B2A2 G2F2 E2F2 E2D2  | 
w:  *  Bu gün  de  neş  |  ve *  dâr  *  *  et *  tim_  | 
E4 F2E2 D2D2 C2D6  | |


